build/svg/cmd/32/deleteallannotation.svg

<?xml version="1.0" encoding="UTF-8" standalone="no"?>
<svg
   xmlns:dc="http://purl.org/dc/elements/1.1/"
   xmlns:cc="http://creativecommons.org/ns#"
   xmlns:rdf="http://www.w3.org/1999/02/22-rdf-syntax-ns#"
   xmlns:svg="http://www.w3.org/2000/svg"
   xmlns="http://www.w3.org/2000/svg"
   xmlns:sodipodi="http://sodipodi.sourceforge.net/DTD/sodipodi-0.dtd"
   xmlns:inkscape="http://www.inkscape.org/namespaces/inkscape"
   viewBox="0 0 32 32"
   version="1.1"
   id="svg4"
   sodipodi:docname="deleteallannotation.svg"
   inkscape:version="0.92.5 (2060ec1f9f, 2020-04-08)"
   inkscape:export-filename="/home/jupiter007/Libreoffice yaru theme fullcolor/build/cmd/32/deleteallannotation.png"
   inkscape:export-xdpi="96"
   inkscape:export-ydpi="96">
  <metadata
     id="metadata10">
    <rdf:RDF>
      <cc:Work
         rdf:about="">
        <dc:format>image/svg+xml</dc:format>
        <dc:type
           rdf:resource="http://purl.org/dc/dcmitype/StillImage" />
      </cc:Work>
    </rdf:RDF>
  </metadata>
  <defs
     id="defs8" />
  <sodipodi:namedview
     pagecolor="#ffffff"
     bordercolor="#666666"
     borderopacity="1"
     objecttolerance="10"
     gridtolerance="10"
     guidetolerance="10"
     inkscape:pageopacity="0"
     inkscape:pageshadow="2"
     inkscape:window-width="1920"
     inkscape:window-height="1011"
     id="namedview6"
     showgrid="true"
     inkscape:zoom="14.75"
     inkscape:cx="4.2825676"
     inkscape:cy="19.270454"
     inkscape:window-x="1920"
     inkscape:window-y="32"
     inkscape:window-maximized="1"
     inkscape:current-layer="svg4">
    <inkscape:grid
       type="xygrid"
       id="grid817" />
  </sodipodi:namedview>
  <path
     id="path850"
     style="opacity:0.6;fill:#000000;fill-opacity:1;fill-rule:nonzero;stroke:#000000;stroke-width:2;stroke-linecap:butt;stroke-linejoin:round;stroke-miterlimit:4;stroke-dasharray:none;stroke-dashoffset:0;stroke-opacity:1"
     d="M 25,13.000141 V 5.0001419 c 0,-2 -1,-2 -3,-2 H 6 c -2,0 -3,0 -3,2 V 16.000141 c 0,2 1,2 3,2 l 6,6 v -6 h 3 7 c 2,0 3,0 3,-2 z"
     inkscape:connector-curvature="0"
     sodipodi:nodetypes="csssssccccccc" />
  <path
     sodipodi:nodetypes="csssssccccccc"
     inkscape:connector-curvature="0"
     d="M 25,13.000141 V 5.0001419 c 0,-2 -1,-2 -3,-2 H 6 c -2,0 -3,0 -3,2 V 16.000141 c 0,2 1,2 3,2 l 6,6 v -6 h 3 7 c 2,0 3,0 3,-2 z"
     style="opacity:1;fill:#fa9381;fill-opacity:1;fill-rule:nonzero;stroke:none;stroke-width:0.00119524;stroke-linecap:butt;stroke-linejoin:round;stroke-miterlimit:4;stroke-dasharray:none;stroke-dashoffset:0;stroke-opacity:1"
     id="path852" />
  <rect
     ry="0.5"
     y="7"
     x="7"
     height="1"
     width="14"
     id="rect854"
     style="opacity:1;fill:#ffffff;fill-opacity:1;stroke:none;stroke-width:2;stroke-linecap:round;stroke-linejoin:round;stroke-miterlimit:4;stroke-dasharray:none;stroke-opacity:1" />
  <rect
     style="opacity:1;fill:#ffffff;fill-opacity:1;stroke:none;stroke-width:2;stroke-linecap:round;stroke-linejoin:round;stroke-miterlimit:4;stroke-dasharray:none;stroke-opacity:1"
     id="rect856"
     width="14"
     height="1"
     x="7"
     y="10"
     ry="0.5" />
  <rect
     ry="0.5"
     y="13"
     x="7"
     height="1"
     width="14"
     id="rect858"
     style="opacity:1;fill:#ffffff;fill-opacity:1;stroke:none;stroke-width:2;stroke-linecap:round;stroke-linejoin:round;stroke-miterlimit:4;stroke-dasharray:none;stroke-opacity:1" />
  <path
     sodipodi:nodetypes="csssssccccccc"
     inkscape:connector-curvature="0"
     d="M 29,17.000141 V 9.0001419 c 0,-2 -1,-2 -3,-2 H 10 c -2,0 -3,0 -3,2 V 20.000141 c 0,2 1,2 3,2 l 6,6 v -6 h 3 7 c 2,0 3,0 3,-2 z"
     style="opacity:0.6;fill:#000000;fill-opacity:1;fill-rule:nonzero;stroke:#000000;stroke-width:2;stroke-linecap:butt;stroke-linejoin:round;stroke-miterlimit:4;stroke-dasharray:none;stroke-dashoffset:0;stroke-opacity:1"
     id="path816" />
  <path
     id="rect841"
     style="opacity:1;fill:#fa9381;fill-opacity:1;fill-rule:nonzero;stroke:none;stroke-width:0.00119524;stroke-linecap:butt;stroke-linejoin:round;stroke-miterlimit:4;stroke-dasharray:none;stroke-dashoffset:0;stroke-opacity:1"
     d="M 29,17.000141 V 9.0001419 c 0,-2 -1,-2 -3,-2 H 10 c -2,0 -3,0 -3,2 V 20.000141 c 0,2 1,2 3,2 l 6,6 v -6 h 3 7 c 2,0 3,0 3,-2 z"
     inkscape:connector-curvature="0"
     sodipodi:nodetypes="csssssccccccc" />
  <rect
     style="opacity:1;fill:#ffffff;fill-opacity:1;stroke:none;stroke-width:2;stroke-linecap:round;stroke-linejoin:round;stroke-miterlimit:4;stroke-dasharray:none;stroke-opacity:1"
     id="rect833"
     width="14"
     height="1"
     x="11"
     y="11"
     ry="0.5" />
  <rect
     ry="0.5"
     y="14"
     x="11"
     height="1"
     width="14"
     id="rect835"
     style="opacity:1;fill:#ffffff;fill-opacity:1;stroke:none;stroke-width:2;stroke-linecap:round;stroke-linejoin:round;stroke-miterlimit:4;stroke-dasharray:none;stroke-opacity:1" />
  <rect
     style="opacity:1;fill:#ffffff;fill-opacity:1;stroke:none;stroke-width:2;stroke-linecap:round;stroke-linejoin:round;stroke-miterlimit:4;stroke-dasharray:none;stroke-opacity:1"
     id="rect837"
     width="14"
     height="1"
     x="11"
     y="17"
     ry="0.5" />
  <circle
     style="opacity:1;vector-effect:none;fill:#c7162b;fill-opacity:1;stroke:none;stroke-width:4.49999952;stroke-linecap:butt;stroke-linejoin:round;stroke-miterlimit:4;stroke-dasharray:none;stroke-dashoffset:0;stroke-opacity:1"
     id="path2644"
     cy="33.941128"
     cx="3.5355346"
     r="4.5"
     transform="rotate(-45)" />
  <path
     inkscape:connector-curvature="0"
     id="path1063"
     overflow="visible"
     font-weight="400"
     style="color:#000000;font-weight:400;line-height:normal;font-family:sans-serif;text-indent:0;text-align:start;text-decoration:none;text-decoration-line:none;text-decoration-style:solid;text-decoration-color:#000000;text-transform:none;white-space:normal;overflow:visible;isolation:auto;mix-blend-mode:normal;fill:#ffffff;fill-opacity:1;marker:none"
     d="m 24.37868,20.085785 1.414213,1.414214 -1.414214,1.414214 0.707107,0.707107 L 26.5,22.207106 27.914213,23.621319 28.62132,22.914213 27.207107,21.499999 28.62132,20.085785 27.914213,19.378679 26.5,20.792892 25.085786,19.378679 Z" />
</svg>

<svg xmlns="http://www.w3.org/2000/svg" viewBox="0 0 32 32"><path d="M25 13V5c0-2-1-2-3-2H6C4 3 3 3 3 5v11c0 2 1 2 3 2l6 6v-6h10c2 0 3 0 3-2z" opacity=".6" stroke="#000" stroke-width="2" stroke-linejoin="round"/><path d="M25 13V5c0-2-1-2-3-2H6C4 3 3 3 3 5v11c0 2 1 2 3 2l6 6v-6h10c2 0 3 0 3-2z" fill="#fa9381"/><rect ry=".5" y="7" x="7" height="1" width="14" fill="#fff"/><rect width="14" height="1" x="7" y="10" ry=".5" fill="#fff"/><rect ry=".5" y="13" x="7" height="1" width="14" fill="#fff"/><path d="M29 17V9c0-2-1-2-3-2H10C8 7 7 7 7 9v11c0 2 1 2 3 2l6 6v-6h10c2 0 3 0 3-2z" opacity=".6" stroke="#000" stroke-width="2" stroke-linejoin="round"/><path d="M29 17V9c0-2-1-2-3-2H10C8 7 7 7 7 9v11c0 2 1 2 3 2l6 6v-6h10c2 0 3 0 3-2z" fill="#fa9381"/><rect width="14" height="1" x="11" y="11" ry=".5" fill="#fff"/><rect ry=".5" y="14" x="11" height="1" width="14" fill="#fff"/><rect width="14" height="1" x="11" y="17" ry=".5" fill="#fff"/><circle cy="33.941" cx="3.536" r="4.5" transform="rotate(-45)" fill="#c7162b"/><path overflow="visible" font-weight="400" style="line-height:normal;text-indent:0;text-align:start;text-decoration-line:none;text-decoration-style:solid;text-decoration-color:#000;text-transform:none;white-space:normal;isolation:auto;mix-blend-mode:normal;marker:none" d="M24.379 20.086l1.414 1.414-1.414 1.414.707.707 1.414-1.414 1.414 1.414.707-.707-1.414-1.414 1.414-1.414-.707-.707-1.414 1.414-1.414-1.414z" color="#000" font-family="sans-serif" fill="#fff"/></svg>
